X: 1
T: Stars for Leisbeth
C: Glenn McLure
R: waltz
Z: 2020 John Chambers <jc:trillian.mit.edu> 2020-3-26
S: https://www.facebook.com/groups/Fiddletuneoftheday/
S: https://www.facebook.com/groups/Fiddletuneoftheday/photos/
M: 3/4
L: 1/4
K: D
A |\
"D"dcd | "D/F#"A2F | "G"G>ed | "A"cBA |\
"D"d>ef | "G"Bcd | "A"A<dc | "D"d2 :|
|: e |\
"D"f>ga | "A/C#"efg | "Bm"f>ed | "F#m/A"c2A | "G"B>cd |\
[1 "D/F#"AFD | "G"GAB | "A"cd :|\
[2 "A"edc | "D"d3- | d2 |]
